X:1
T:While Here
T:While Here
T:Will Lamartine Thompson
T:Edgar Cooper Mason, 1904
T:Public Domain Courtesy of the Cyber Hymnal™
T:Public Domain Courtesy of the Cyber Hymnal™
C:Will Lamartine Thompson
Z:Public Domain
Z:Courtesy of the Cyber Hymnal™
%%score ( 1 2 ) ( 3 4 )
L:1/8
Q:1/4=140
M:6/4
K:D
V:1 treble 
V:2 treble 
V:3 bass 
V:4 bass 
V:1
 [DF]2 [DF]2 [DF]2 [CG]4 [CE]2 | [DA]6- [DA]4 z2 | D2 D2 D2 [DG]4 D2 | [DF]6- [DF]4 z2 | %4
w: 1.~Spir- it of life and|light, *|Shine thro’ this wear- y|night, *|
w: 2.~Com- fort this heart, so|worn, *|So crushed by bur- dens|borne, *|
w: 3.~Let ho- ly hopes a-|rise *|Plain- ly be- fore my|eyes, *|
w: 4.~Thus may I lif- ted|be, *|Out of my low de-|gree, *|
 [B,E]6 [B,D]4 B,2 | [CE]6- [CE]4 z2 | [CA]2 [CA]2 [EA]2 [EB]4 E2 | [Ec]6- [Ec]4 z2 | %8
w: My path il-|lume; *|Show me the way to|go, *|
w: Cast down so|low; *|Let Thy sweet peace con-|sole, *|
w: Hopes fixed on|high; *|Hopes that shall ne- ver|fail; *|
w: On ho- ly|wings; *|Kept ev- er in the|way, *|
 [CA]2 [CA]2 [CA]2 [D^G]4 [E=G]2 | [DF]6- [DF]4 z2 | [DE]6 [D^E]4 [DE]2 | %11
w: Make me Thy will to|know; *|Dis- pel the|
w: This wea- ry, an- xious|soul, *|Tossed to and|
w: An- chored with- in the|veil, *|Be- yond the|
w: As- pir- ing day by|day, *|To high- er|
 ([DF]2 [CE]2 [DF]2 [EG]2 [DF]2 [EG]2 | [FA]4) [DF]2 [CF]4 [CE]2 | D6- D2 z4 |] %14
w: gloom, * * * * *|* Dis- pel the|gloom. *|
w: fro, * * * * *|* Tossed to and|fro. *|
w: sky, * * * * *|* Be- yond the|sky. *|
w: things, * * * * *|* To high- er|things. *|
V:2
 x12 | x12 | D2 D2 D2 x2 D2 x2 | x12 | x10 B,2 | x12 | x10 E2 | x12 | x12 | x12 | x12 | x12 | x12 | %13
 D6- D2 x4 |] %14
V:3
 [D,A,]2 [D,A,]2 [D,A,]2 [E,A,]4 [E,A,]2 | [F,A,]6- [F,A,]4 z2 | %2
 [G,B,]2 [G,B,]2 [G,B,]2 [G,_B,]4 [G,B,]2 | [D,A,]6- [D,A,]4 z2 | [E,^G,]6 [E,G,]4 [E,G,]2 | %5
 [A,,A,]6- [A,,A,]4 z2 | [A,,A,]2 [A,,A,]2 [C,A,]2 [E,^G,]4 [E,G,]2 | [A,,A,]6- [A,,A,]4 z2 | %8
 [A,,E,]2 [A,,E,]2 [A,,E,]2 [B,,E,]4 [C,A,]2 | [D,A,]6- [D,A,]4 z2 | [G,B,]6 [^G,B,]4 [G,B,]2 | %11
 A,12- | A,4 A,2 [A,,A,]4 [A,,G,]2 | [D,F,]6- [D,F,]2 z4 |] %14
V:4
 x12 | x12 | x12 | x12 | x12 | x12 | x12 | x12 | x12 | x12 | x12 | A,12- | A,4 A,2 x6 | x12 |] %14

